X:103
T:Saint Anne's Reel
C:Old-Time
M:4/4
K:D
Q:1/4=140
L:1/8
vAd |: "D" f2 (ufg) fedB | A2 F2 F3 uA | "G" B2 G2 GABd |
"D" B2 A2 A2 u(Ad) | f2 u(fg) fedB | A2 F2 F2 u(Ad) | "G" BGBd "A" cAce |
|1 "D" d2 [d2f2] [d2f2] u(Ad) :|2 "D" d2 [d2f2] [d2f2] u(ag) |: "D" vfdfa fdfa | "Em" agga g2 u(gf) |
"A" edcB Aceg "D" baab a2 u(ag) | vfdfa fdfa | "Em" agga g2 u(gf) |
"A" edcB Aceg |1 "D" fd ec d2 u(ag) :|2 fdec d2 |]
% For Mary Beth Sloat,  2016 Jun 4 concert
